X:163
T:L\"arbropolskan
R:sl\"angpolska
A:Gotland
Z:id:hn-sp-163
M:3/4
L:1/16
K:Am
ABcA B2=G2 E2G2 | ABcd e2c2 B2A2 | =f3e d2c2 B2A2 |
^G2E2 e2E2 ^F2G2 | ABcA B2=G2 E2G2 | ABcd e2c2 B2A2 |
f3e d2c2 B2^G2 | E2^F^G A8 :||: c3B c2e2 g2e2 | e2dc dcBA =G2=F2 |
EDEF G2AB c2e2 | dBGB d4 c4 | c3G c2e2 d2c2 | B3G B2d2 c2B2 |
A3^G A2c2 B2A2 | ^G2E2 e2E2 ^F2G2 | ABcA B2=G2 E2G2 |
ABcd e2c2 B2A2 | f3e d2c2 B2^G2 | E2^F^G A8 :|
<end>
<start>
